static/img/background/safespring-compute-background.svg

<svg xmlns="http://www.w3.org/2000/svg" xmlns:xlink="http://www.w3.org/1999/xlink" width="800" height="800" viewBox="0 0 800 800">
  <defs>
    <radialGradient id="radial-gradient" cx="2.411" cy="1.417" r="2.475" gradientTransform="translate(0 -0.007) scale(1 0.963)" gradientUnits="objectBoundingBox">
      <stop offset="0" stop-color="#3c9bcd"/>
      <stop offset="1" stop-color="#e7eff3"/>
    </radialGradient>
    <radialGradient id="radial-gradient-2" cx="0.5" cy="0.5" r="0.5" gradientUnits="objectBoundingBox">
      <stop offset="0" stop-color="#fff"/>
      <stop offset="1" stop-color="#fff" stop-opacity="0"/>
    </radialGradient>
    <clipPath id="clip-safespring-compute-background">
      <rect width="800" height="800"/>
    </clipPath>
  </defs>
  <g id="safespring-compute-background" clip-path="url(#clip-safespring-compute-background)">
    <rect width="800" height="800" fill="url(#radial-gradient)"/>
    <circle id="Ellipse_45" data-name="Ellipse 45" cx="163.5" cy="163.5" r="163.5" transform="translate(500 393)" fill="#e0e0e0" style="mix-blend-mode: color-burn;isolation: isolate"/>
    <path id="server-solid-2" d="M19.581,32A19.6,19.6,0,0,0,0,51.581V71.163A19.6,19.6,0,0,0,19.581,90.744H137.07a19.6,19.6,0,0,0,19.581-19.581V51.581A19.6,19.6,0,0,0,137.07,32ZM105.25,68.715a7.343,7.343,0,1,1,7.343-7.343A7.325,7.325,0,0,1,105.25,68.715Zm29.372-7.343a7.343,7.343,0,1,1-7.343-7.343A7.325,7.325,0,0,1,134.622,61.372ZM19.581,110.326A19.6,19.6,0,0,0,0,129.907v19.581A19.6,19.6,0,0,0,19.581,169.07H137.07a19.6,19.6,0,0,0,19.581-19.581V129.907a19.6,19.6,0,0,0-19.581-19.581Zm85.669,36.715a7.343,7.343,0,1,1,7.343-7.343A7.325,7.325,0,0,1,105.25,147.041Zm31.82-7.343a7.343,7.343,0,1,1-7.343-7.343A7.325,7.325,0,0,1,137.07,139.7Z" transform="translate(585.174 455.965)" fill="#c6c6c6" style="mix-blend-mode: color-burn;isolation: isolate"/>
    <circle id="Ellipse_46" data-name="Ellipse 46" cx="69.5" cy="69.5" r="69.5" transform="translate(484 277)" fill="#e0e0e0" style="mix-blend-mode: color-burn;isolation: isolate"/>
    <path id="server-solid-2-2" data-name="server-solid-2" d="M8.3,32A8.311,8.311,0,0,0,0,40.3v8.3a8.311,8.311,0,0,0,8.3,8.3H58.121a8.311,8.311,0,0,0,8.3-8.3V40.3a8.311,8.311,0,0,0-8.3-8.3ZM44.629,47.568a3.114,3.114,0,1,1,3.114-3.114A3.106,3.106,0,0,1,44.629,47.568Zm12.455-3.114a3.114,3.114,0,1,1-3.114-3.114A3.106,3.106,0,0,1,57.083,44.455ZM8.3,65.212a8.311,8.311,0,0,0-8.3,8.3v8.3a8.311,8.311,0,0,0,8.3,8.3H58.121a8.311,8.311,0,0,0,8.3-8.3v-8.3a8.311,8.311,0,0,0-8.3-8.3ZM44.629,80.78a3.114,3.114,0,1,1,3.114-3.114A3.106,3.106,0,0,1,44.629,80.78Zm13.492-3.114a3.114,3.114,0,1,1-3.114-3.114A3.106,3.106,0,0,1,58.121,77.667Z" transform="translate(520.08 285.611)" fill="#c6c6c6" style="mix-blend-mode: color-burn;isolation: isolate"/>
    <circle id="Ellipse_47" data-name="Ellipse 47" cx="89.5" cy="89.5" r="89.5" transform="translate(621 214)" fill="#e0e0e0" style="mix-blend-mode: color-burn;isolation: isolate"/>
    <path id="server-solid-2-3" data-name="server-solid-2" d="M10.69,32A10.7,10.7,0,0,0,0,42.69v10.69a10.7,10.7,0,0,0,10.69,10.69H74.827a10.7,10.7,0,0,0,10.69-10.69V42.69A10.7,10.7,0,0,0,74.827,32ZM57.456,52.043a4.009,4.009,0,1,1,4.009-4.009A4,4,0,0,1,57.456,52.043Zm16.034-4.009a4.009,4.009,0,1,1-4.009-4.009A4,4,0,0,1,73.491,48.034ZM10.69,74.758A10.7,10.7,0,0,0,0,85.448v10.69a10.7,10.7,0,0,0,10.69,10.69H74.827a10.7,10.7,0,0,0,10.69-10.69V85.448a10.7,10.7,0,0,0-10.69-10.69ZM57.456,94.8a4.009,4.009,0,1,1,4.009-4.009A4,4,0,0,1,57.456,94.8Zm17.371-4.009a4.009,4.009,0,1,1-4.009-4.009A4,4,0,0,1,74.827,90.793Z" transform="translate(667.497 234.331)" fill="#c6c6c6" style="mix-blend-mode: color-burn;isolation: isolate"/>
    <circle id="Ellipse_48" data-name="Ellipse 48" cx="54.5" cy="54.5" r="54.5" transform="translate(533 169)" fill="#e0e0e0" style="mix-blend-mode: color-burn;isolation: isolate"/>
    <path id="server-solid-2-4" data-name="server-solid-2" d="M6.468,32A6.474,6.474,0,0,0,0,38.468v6.468A6.474,6.474,0,0,0,6.468,51.4H45.273a6.474,6.474,0,0,0,6.468-6.468V38.468A6.474,6.474,0,0,0,45.273,32Zm28.3,12.127A2.425,2.425,0,1,1,37.189,41.7,2.42,2.42,0,0,1,34.763,44.127Zm9.7-2.425a2.425,2.425,0,1,1-2.425-2.425A2.42,2.42,0,0,1,44.465,41.7Zm-38,16.169A6.474,6.474,0,0,0,0,64.338v6.468a6.474,6.474,0,0,0,6.468,6.468H45.273a6.474,6.474,0,0,0,6.468-6.468V64.338a6.474,6.474,0,0,0-6.468-6.468ZM34.763,70a2.425,2.425,0,1,1,2.425-2.425A2.42,2.42,0,0,1,34.763,70Zm10.51-2.425a2.425,2.425,0,1,1-2.425-2.425A2.42,2.42,0,0,1,45.273,67.572Z" transform="translate(561.133 169.36)" fill="#c6c6c6" style="mix-blend-mode: color-burn;isolation: isolate"/>
    <circle id="Ellipse_49" data-name="Ellipse 49" cx="54.5" cy="54.5" r="54.5" transform="translate(625 106)" fill="#e0e0e0" style="mix-blend-mode: color-burn;isolation: isolate"/>
    <path id="server-solid-2-5" data-name="server-solid-2" d="M6.468,32A6.474,6.474,0,0,0,0,38.468v6.468A6.474,6.474,0,0,0,6.468,51.4H45.273a6.474,6.474,0,0,0,6.468-6.468V38.468A6.474,6.474,0,0,0,45.273,32Zm28.3,12.127A2.425,2.425,0,1,1,37.189,41.7,2.42,2.42,0,0,1,34.763,44.127Zm9.7-2.425a2.425,2.425,0,1,1-2.425-2.425A2.42,2.42,0,0,1,44.465,41.7Zm-38,16.169A6.474,6.474,0,0,0,0,64.338v6.468a6.474,6.474,0,0,0,6.468,6.468H45.273a6.474,6.474,0,0,0,6.468-6.468V64.338a6.474,6.474,0,0,0-6.468-6.468ZM34.763,70a2.425,2.425,0,1,1,2.425-2.425A2.42,2.42,0,0,1,34.763,70Zm10.51-2.425a2.425,2.425,0,1,1-2.425-2.425A2.42,2.42,0,0,1,45.273,67.572Z" transform="translate(653.133 106.36)" fill="#c6c6c6" style="mix-blend-mode: color-burn;isolation: isolate"/>
    <circle id="Ellipse_50" data-name="Ellipse 50" cx="27.5" cy="27.5" r="27.5" transform="translate(569 111)" fill="#e0e0e0" style="mix-blend-mode: color-burn;isolation: isolate"/>
    <path id="server-solid-2-6" data-name="server-solid-2" d="M3.263,32A3.266,3.266,0,0,0,0,35.263v3.263A3.266,3.266,0,0,0,3.263,41.79h19.58a3.266,3.266,0,0,0,3.263-3.263V35.263A3.266,3.266,0,0,0,22.843,32ZM17.54,38.119a1.224,1.224,0,1,1,1.224-1.224A1.221,1.221,0,0,1,17.54,38.119Zm4.895-1.224a1.224,1.224,0,1,1-1.224-1.224A1.221,1.221,0,0,1,22.435,36.895ZM3.263,45.053A3.266,3.266,0,0,0,0,48.316V51.58a3.266,3.266,0,0,0,3.263,3.263h19.58a3.266,3.266,0,0,0,3.263-3.263V48.316a3.266,3.266,0,0,0-3.263-3.263ZM17.54,51.172a1.224,1.224,0,1,1,1.224-1.224A1.221,1.221,0,0,1,17.54,51.172Zm5.3-1.224a1.224,1.224,0,1,1-1.224-1.224A1.221,1.221,0,0,1,22.843,49.948Z" transform="translate(583.195 95.328)" fill="#c6c6c6" style="mix-blend-mode: color-burn;isolation: isolate"/>
    <circle id="Ellipse_51" data-name="Ellipse 51" cx="322" cy="322" r="322" transform="translate(-111 54)" fill="url(#radial-gradient-2)"/>
  </g>
</svg>

<svg xmlns="http://www.w3.org/2000/svg" xmlns:xlink="http://www.w3.org/1999/xlink" width="800" height="800" viewBox="0 0 800 800"><defs><radialGradient id="radial-gradient" cx="2.411" cy="1.417" r="2.475" gradientTransform="matrix(1 0 0 .963 0 -.007)" gradientUnits="objectBoundingBox"><stop offset="0" stop-color="#3c9bcd"/><stop offset="1" stop-color="#e7eff3"/></radialGradient><radialGradient id="radial-gradient-2" cx="0.5" cy="0.5" r="0.5" gradientUnits="objectBoundingBox"><stop offset="0" stop-color="#fff"/><stop offset="1" stop-color="#fff" stop-opacity="0"/></radialGradient><clipPath id="clip-safespring-compute-background"><path d="M0 0h800v800H0z"/></clipPath></defs><g id="safespring-compute-background" clip-path="url(#clip-safespring-compute-background)"><path fill="url(#radial-gradient)" d="M0 0h800v800H0z"/><circle id="Ellipse_45" cx="163.5" cy="163.5" r="163.5" fill="#e0e0e0" style="mix-blend-mode:color-burn;isolation:isolate" transform="translate(500 393)"/><path id="server-solid-2" fill="#c6c6c6" d="M19.58 32A19.6 19.6 0 0 0 0 51.58v19.58a19.6 19.6 0 0 0 19.58 19.58h117.49a19.6 19.6 0 0 0 19.58-19.58V51.58A19.6 19.6 0 0 0 137.07 32Zm85.67 36.72a7.34 7.34 0 1 1 7.34-7.35 7.33 7.33 0 0 1-7.34 7.35m29.37-7.35a7.34 7.34 0 1 1-7.34-7.34 7.33 7.33 0 0 1 7.34 7.34M19.58 110.33A19.6 19.6 0 0 0 0 129.9v19.58a19.6 19.6 0 0 0 19.58 19.58h117.49a19.6 19.6 0 0 0 19.58-19.58V129.9a19.6 19.6 0 0 0-19.58-19.58Zm85.67 36.71a7.34 7.34 0 1 1 7.34-7.34 7.33 7.33 0 0 1-7.34 7.34m31.82-7.34a7.34 7.34 0 1 1-7.34-7.34 7.33 7.33 0 0 1 7.34 7.34" style="mix-blend-mode:color-burn;isolation:isolate" transform="translate(585.174 455.965)"/><circle id="Ellipse_46" cx="69.5" cy="69.5" r="69.5" fill="#e0e0e0" style="mix-blend-mode:color-burn;isolation:isolate" transform="translate(484 277)"/><path id="server-solid-2-2" fill="#c6c6c6" d="M8.3 32A8.3 8.3 0 0 0 0 40.3v8.3a8.3 8.3 0 0 0 8.3 8.3h49.82a8.3 8.3 0 0 0 8.3-8.3v-8.3a8.3 8.3 0 0 0-8.3-8.3Zm36.33 15.57a3.11 3.11 0 1 1 3.11-3.12 3.1 3.1 0 0 1-3.11 3.12m12.45-3.12a3.11 3.11 0 1 1-3.11-3.11 3.1 3.1 0 0 1 3.11 3.11M8.3 65.21a8.3 8.3 0 0 0-8.3 8.3v8.3a8.3 8.3 0 0 0 8.3 8.3h49.82a8.3 8.3 0 0 0 8.3-8.3v-8.3a8.3 8.3 0 0 0-8.3-8.3Zm36.33 15.57a3.11 3.11 0 1 1 3.11-3.11 3.1 3.1 0 0 1-3.11 3.11m13.5-3.11A3.11 3.11 0 1 1 55 74.55a3.1 3.1 0 0 1 3.11 3.12Z" style="mix-blend-mode:color-burn;isolation:isolate" transform="translate(520.08 285.611)"/><circle id="Ellipse_47" cx="89.5" cy="89.5" r="89.5" fill="#e0e0e0" style="mix-blend-mode:color-burn;isolation:isolate" transform="translate(621 214)"/><path id="server-solid-2-3" fill="#c6c6c6" d="M10.69 32A10.7 10.7 0 0 0 0 42.69v10.69a10.7 10.7 0 0 0 10.69 10.69h64.14a10.7 10.7 0 0 0 10.69-10.69V42.69A10.7 10.7 0 0 0 74.82 32Zm46.77 20.04a4 4 0 1 1 4-4 4 4 0 0 1-4 4m16.03-4a4 4 0 1 1-4-4.02 4 4 0 0 1 4 4.01m-62.8 26.72A10.7 10.7 0 0 0 0 85.45v10.69a10.7 10.7 0 0 0 10.69 10.69h64.14a10.7 10.7 0 0 0 10.69-10.7V85.46a10.7 10.7 0 0 0-10.7-10.7ZM57.46 94.8a4 4 0 1 1 4-4 4 4 0 0 1-4 4m17.37-4a4 4 0 1 1-4.01-4.02 4 4 0 0 1 4 4.01Z" style="mix-blend-mode:color-burn;isolation:isolate" transform="translate(667.497 234.331)"/><circle id="Ellipse_48" cx="54.5" cy="54.5" r="54.5" fill="#e0e0e0" style="mix-blend-mode:color-burn;isolation:isolate" transform="translate(533 169)"/><path id="server-solid-2-4" fill="#c6c6c6" d="M6.47 32A6.47 6.47 0 0 0 0 38.47v6.47a6.47 6.47 0 0 0 6.47 6.46h38.8a6.47 6.47 0 0 0 6.47-6.47v-6.46A6.47 6.47 0 0 0 45.27 32Zm28.3 12.13a2.42 2.42 0 1 1 2.42-2.43 2.4 2.4 0 0 1-2.43 2.43Zm9.7-2.43a2.42 2.42 0 1 1-2.43-2.42 2.4 2.4 0 0 1 2.43 2.42m-38 16.17A6.47 6.47 0 0 0 0 64.34v6.47a6.47 6.47 0 0 0 6.47 6.46h38.8a6.47 6.47 0 0 0 6.47-6.46v-6.47a6.47 6.47 0 0 0-6.47-6.47ZM34.77 70a2.42 2.42 0 1 1 2.42-2.42A2.4 2.4 0 0 1 34.76 70m10.5-2.42a2.42 2.42 0 1 1-2.42-2.43 2.4 2.4 0 0 1 2.42 2.42Z" style="mix-blend-mode:color-burn;isolation:isolate" transform="translate(561.133 169.36)"/><circle id="Ellipse_49" cx="54.5" cy="54.5" r="54.5" fill="#e0e0e0" style="mix-blend-mode:color-burn;isolation:isolate" transform="translate(625 106)"/><path id="server-solid-2-5" fill="#c6c6c6" d="M6.47 32A6.47 6.47 0 0 0 0 38.47v6.47a6.47 6.47 0 0 0 6.47 6.46h38.8a6.47 6.47 0 0 0 6.47-6.47v-6.46A6.47 6.47 0 0 0 45.27 32Zm28.3 12.13a2.42 2.42 0 1 1 2.42-2.43 2.4 2.4 0 0 1-2.43 2.43Zm9.7-2.43a2.42 2.42 0 1 1-2.43-2.42 2.4 2.4 0 0 1 2.43 2.42m-38 16.17A6.47 6.47 0 0 0 0 64.34v6.47a6.47 6.47 0 0 0 6.47 6.46h38.8a6.47 6.47 0 0 0 6.47-6.46v-6.47a6.47 6.47 0 0 0-6.47-6.47ZM34.77 70a2.42 2.42 0 1 1 2.42-2.42A2.4 2.4 0 0 1 34.76 70m10.5-2.42a2.42 2.42 0 1 1-2.42-2.43 2.4 2.4 0 0 1 2.42 2.42Z" style="mix-blend-mode:color-burn;isolation:isolate" transform="translate(653.133 106.36)"/><circle id="Ellipse_50" cx="27.5" cy="27.5" r="27.5" fill="#e0e0e0" style="mix-blend-mode:color-burn;isolation:isolate" transform="translate(569 111)"/><path id="server-solid-2-6" fill="#c6c6c6" d="M3.26 32A3.27 3.27 0 0 0 0 35.26v3.27a3.27 3.27 0 0 0 3.26 3.26h19.58a3.27 3.27 0 0 0 3.27-3.26v-3.27A3.27 3.27 0 0 0 22.84 32Zm14.28 6.12a1.22 1.22 0 1 1 1.22-1.22 1.2 1.2 0 0 1-1.22 1.22m4.9-1.22a1.22 1.22 0 1 1-1.23-1.23 1.2 1.2 0 0 1 1.22 1.23M3.25 45.05A3.27 3.27 0 0 0 0 48.32v3.26a3.27 3.27 0 0 0 3.26 3.26h19.58a3.27 3.27 0 0 0 3.27-3.26v-3.26a3.27 3.27 0 0 0-3.27-3.27Zm14.28 6.12a1.22 1.22 0 1 1 1.22-1.22 1.2 1.2 0 0 1-1.22 1.22m5.3-1.22a1.22 1.22 0 1 1-1.22-1.23 1.2 1.2 0 0 1 1.22 1.23" style="mix-blend-mode:color-burn;isolation:isolate" transform="translate(583.195 95.328)"/><circle id="Ellipse_51" cx="322" cy="322" r="322" fill="url(#radial-gradient-2)" transform="translate(-111 54)"/></g></svg>
